X:1
T:When the Battle’s Over
T:When the Battle’s Over
T:William Burdine Blake, Sr. (1852-1938)
T:Public Domain Courtesy of the Cyber Hymnal™)
C:William Burdine Blake, Sr. (1852-1938)
Z:Public Domain
Z:Courtesy of the Cyber Hymnal™)
%%score ( 1 2 ) 3
L:1/8
M:4/4
K:G
V:1 treble 
V:2 treble 
V:3 bass 
V:1
 D2 | [DG]2 [DG]2 [GB]2 [GB]2 | [Bd]3 [Ac] [GB]2 [GB]2 | [Ac]3 [GB] [FA]2 [FA]2 | G6 :| %5
"^Refrain" D2 | [DG]>[DG] [DG]>[DA] [GB]2 [Ac]2 | [Bd]>[Bd] [Bd]>[Ac] [GB]2 d2 | %8
 [Ac]>[Ac] [Ac]>[GB] [FA]2 d2 |S [GB]>[GB] [GB]>[DA] [DG]2 D2 | [DG]>[DG] [DG]>[DA] [GB]2 [Ac]2 | %11
 [Bd]>[Bd] [Bd]>[Ac] [GB]2 [GB]>[GB] | [Ac]3 [GB] [FA]2 [FA]2 | G6 [FA]>[GB]!fine! | %14
 [Ac]6 [Bd]>[Ac] | [GB]6 [GB]>[Ac] | [Gd]3 [GB] G2 [GB]2 | [FA]6!D.S.! |] %18
V:2
 D2 | x8 | x8 | x8 | G6 :| D2 | x8 | x8 | x6 d2 | x6 D2 | x8 | x8 | x8 | G6 x2 | x8 | x8 | x8 | %17
 x6 |] %18
V:3
 [G,B,]2 | [G,B,]2 [G,B,]2 [G,D]2 [G,D]2 | [G,D]3 [G,D] [G,D]2 [G,D]2 | %3
 [D,D]3 [D,D] [D,D]2 [D,C]2 | [G,B,]6 :| [G,B,]2 | [G,B,]>[G,B,] [G,B,]>[G,C] [G,D]2 [G,D]2 | %7
 [G,D]>[G,D] [G,D]>[G,D] [G,D]2 z2 | [D,D]>[D,D] [D,D]>[D,D] [D,D]2 z2 | %9
 [G,D]>[G,D] [G,D]>[G,C] [G,B,]2 [G,B,]2 | [G,B,]>[G,B,] [G,B,]>[G,C] [G,D]2 [G,D]2 | %11
 [G,D]>[G,D] [G,D]>[G,D] [G,D]2 [G,D]>[G,D] | [D,D]3 [D,D] [D,D]2 [D,C]2 | [G,B,]6 z2 | %14
 z2 [D,D]>[D,D] [D,D]2 z2 | z2 [G,D]>[G,D] [G,D]2 [G,D]>[G,C] | [G,B,]3 [G,D] [B,D]2 [G,D]2 | %17
 [D,D]6 |] %18

